X:354
T: Zhouzongli jingshen yongshicuen
N: C1855
O: China,Qinghai Xuenhua Tongren
S: I, 223]
R: Shange, Saladaling]
M: 2/4
L: 1/16
K: Bb
d4 | g8- | g8gfd2 | d4f4g2z2 | b4c4cbg2 | b4d4b2c2 | b2g2g4 |
d4 | d4g4g2f2 | g4c4d4 | g2f2g8- | g12
g4c4d4 | c2b2g4f2d2 | g4g8- | g12
d4f4g2z2 | b4c4bgz2 | b4d4b2c2 | b2g2g4z4
d4g4g2f2 | g4c4d4 | g2f2g8
g4c4d4 | c2b2g4f2d2 | g4g8- | g4f4 |
d4g4g2f2 | g4c4d4 | g2f2g8
g4c4d4 | c2b2g4f2d2 | g8 | b4c4d4 | g2f2g4

@@@ Tune index: 6909
